assets/amenitiesIcons/Carrom.svg

<?xml version="1.0" encoding="utf-8"?><!-- Uploaded to: SVG Repo, www.svgrepo.com, Generator: SVG Repo Mixer Tools -->
<svg width="800px" height="800px" viewBox="0 0 24 24" fill="none" xmlns="http://www.w3.org/2000/svg">
<path d="M7.59001 12.87C7.39116 12.8698 7.20052 12.7907 7.06001 12.65C6.99222 12.5806 6.93796 12.4993 6.90001 12.41C6.83317 12.27 6.81136 12.1128 6.83758 11.96C6.86381 11.8071 6.93678 11.6661 7.04645 11.5564C7.15612 11.4468 7.29709 11.3738 7.44996 11.3476C7.60282 11.3214 7.76005 11.3432 7.90001 11.41C8.08105 11.4851 8.22491 11.629 8.30001 11.81C8.33988 11.9015 8.36032 12.0002 8.36001 12.1C8.35948 12.1997 8.33908 12.2983 8.30001 12.39C8.26595 12.4813 8.21118 12.5635 8.14001 12.63C8.06979 12.7057 7.9847 12.7661 7.89006 12.8074C7.79541 12.8487 7.69327 12.87 7.59001 12.87Z" fill="#000000"/>
<path d="M12 12.74C11.9002 12.7403 11.8015 12.7199 11.71 12.68C11.6208 12.6421 11.5394 12.5878 11.47 12.52C11.3311 12.3783 11.2523 12.1884 11.25 11.99C11.2512 11.8913 11.2681 11.7934 11.3 11.7C11.3858 11.5205 11.5305 11.3758 11.71 11.29C11.8025 11.2507 11.9019 11.2301 12.0024 11.2295C12.1029 11.2288 12.2026 11.2481 12.2956 11.2863C12.3886 11.3244 12.4731 11.3806 12.5442 11.4516C12.6154 11.5226 12.6717 11.6071 12.71 11.7C12.7499 11.7915 12.7703 11.8902 12.77 11.99C12.77 12.1889 12.691 12.3797 12.5503 12.5203C12.4097 12.661 12.2189 12.74 12.02 12.74H12Z" fill="#000000"/>
<path d="M12.11 8.35C12.0139 8.36516 11.9161 8.36516 11.82 8.35C11.7289 8.31097 11.6471 8.25302 11.58 8.18C11.5092 8.11104 11.4515 8.0297 11.41 7.94C11.378 7.8466 11.3612 7.74871 11.36 7.65C11.3621 7.55464 11.3789 7.46018 11.41 7.37C11.4489 7.27586 11.5067 7.19075 11.58 7.12C11.6852 7.01811 11.8177 6.9488 11.9614 6.92041C12.1051 6.89203 12.2539 6.90577 12.39 6.96C12.484 6.9945 12.5694 7.04904 12.6402 7.11984C12.711 7.19064 12.7655 7.276 12.8 7.37C12.82 7.46226 12.82 7.55774 12.8 7.65C12.8029 7.74798 12.7858 7.84553 12.7497 7.93667C12.7136 8.0278 12.6592 8.11061 12.59 8.18C12.5175 8.25115 12.4328 8.30873 12.34 8.35C12.2636 8.35962 12.1864 8.35962 12.11 8.35Z" fill="#000000"/>
<path d="M11.84 17.11C11.6908 17.1116 11.5445 17.0688 11.4198 16.9868C11.2951 16.9049 11.1977 16.7876 11.14 16.65C11.1001 16.5585 11.0797 16.4598 11.08 16.36C11.0805 16.2603 11.1009 16.1617 11.14 16.07C11.178 15.9807 11.2322 15.8993 11.3 15.83C11.4054 15.725 11.5396 15.6537 11.6857 15.6252C11.8317 15.5968 11.9829 15.6123 12.12 15.67C12.2093 15.7079 12.2906 15.7622 12.36 15.83C12.4308 15.8989 12.4885 15.9803 12.53 16.07C12.5643 16.1631 12.5845 16.2609 12.59 16.36C12.5855 16.4592 12.5652 16.5571 12.53 16.65C12.4885 16.7397 12.4308 16.821 12.36 16.89C12.2226 17.0292 12.0356 17.1083 11.84 17.11Z" fill="#000000"/>
<path d="M16.35 12.6C16.2502 12.6003 16.1515 12.5799 16.06 12.54C15.9708 12.5021 15.8894 12.4478 15.82 12.38C15.6828 12.2372 15.6043 12.048 15.6 11.85C15.5997 11.7502 15.6201 11.6515 15.66 11.56C15.6964 11.467 15.7508 11.382 15.82 11.31C15.8919 11.2454 15.9727 11.1915 16.06 11.15C16.198 11.0974 16.348 11.0845 16.4929 11.1127C16.6378 11.141 16.7719 11.2094 16.88 11.31C16.9481 11.3829 17.0023 11.4676 17.04 11.56C17.0799 11.6515 17.1003 11.7502 17.1 11.85C17.0992 11.9464 17.0788 12.0417 17.04 12.13C17.0023 12.2224 16.9481 12.3071 16.88 12.38C16.7395 12.5207 16.5489 12.5998 16.35 12.6Z" fill="#000000"/>
<path d="M12 22.84C11.5076 22.8401 11.0201 22.743 10.5653 22.5542C10.1106 22.3655 9.69757 22.0888 9.35001 21.74L2.25001 14.64C1.54775 13.9369 1.15331 12.9837 1.15331 11.99C1.15331 10.9962 1.54775 10.0431 2.25001 9.34L9.35001 2.24C10.0531 1.53774 11.0063 1.1433 12 1.1433C12.9938 1.1433 13.9469 1.53774 14.65 2.24L21.75 9.34C22.0989 9.68748 22.3758 10.1005 22.5647 10.5552C22.7536 11.01 22.8509 11.4976 22.8509 11.99C22.8509 12.4824 22.7536 12.97 22.5647 13.4248C22.3758 13.8795 22.0989 14.2925 21.75 14.64L14.65 21.74C14.3024 22.0888 13.8894 22.3655 13.4347 22.5542C12.9799 22.743 12.4924 22.8401 12 22.84ZM12 2.64C11.7045 2.63916 11.4117 2.69707 11.1387 2.81038C10.8658 2.92368 10.6181 3.09011 10.41 3.3L3.31001 10.4C2.88865 10.8219 2.65199 11.3937 2.65199 11.99C2.65199 12.5862 2.88865 13.1581 3.31001 13.58L10.41 20.68C10.8319 21.1013 11.4038 21.338 12 21.338C12.5963 21.338 13.1681 21.1013 13.59 20.68L20.69 13.58C21.1114 13.1581 21.348 12.5862 21.348 11.99C21.348 11.3937 21.1114 10.8219 20.69 10.4L13.59 3.3C13.3819 3.09011 13.1342 2.92368 12.8613 2.81038C12.5883 2.69707 12.2955 2.63916 12 2.64Z" fill="#000000"/>
</svg>

<svg xmlns="http://www.w3.org/2000/svg" width="800" height="800" fill="none" viewBox="0 0 24 24"><path fill="#000" d="M7.59 12.87a.75.75 0 0 1-.69-.46.75.75 0 0 1 1-1 .74.74 0 0 1 .4.4.72.72 0 0 1 0 .58.63.63 0 0 1-.16.24.75.75 0 0 1-.55.24M12 12.74a.78.78 0 0 1-.53-.22.77.77 0 0 1-.22-.53.932.932 0 0 1 .05-.29.87.87 0 0 1 .41-.41.76.76 0 0 1 1 .41.75.75 0 0 1-.69 1.04zM12.11 8.35a.93.93 0 0 1-.29 0 .7.7 0 0 1-.24-.17.81.81 0 0 1-.17-.24.93.93 0 0 1-.05-.29.92.92 0 0 1 .05-.28.76.76 0 0 1 .98-.41.69.69 0 0 1 .41.41.66.66 0 0 1 0 .28.72.72 0 0 1-.21.53.85.85 0 0 1-.25.17.92.92 0 0 1-.23 0M11.84 17.11a.75.75 0 1 1 .52-1.28.81.81 0 0 1 .17.24 1 1 0 0 1 .06.29.939.939 0 0 1-.06.29.81.81 0 0 1-.17.24.74.74 0 0 1-.52.22M16.35 12.6a.78.78 0 0 1-.53-.22.79.79 0 0 1-.22-.53c0-.1.02-.198.06-.29a.761.761 0 0 1 .16-.25c.072-.065.153-.119.24-.16a.791.791 0 0 1 .82.16.82.82 0 0 1 .22.54.82.82 0 0 1-.22.53.75.75 0 0 1-.53.22"/><path fill="#000" d="M12 22.84a3.74 3.74 0 0 1-2.65-1.1l-7.1-7.1a3.75 3.75 0 0 1 0-5.3l7.1-7.1a3.75 3.75 0 0 1 5.3 0l7.1 7.1a3.74 3.74 0 0 1 0 5.3l-7.1 7.1a3.74 3.74 0 0 1-2.65 1.1m0-20.2a2.23 2.23 0 0 0-1.59.66l-7.1 7.1a2.25 2.25 0 0 0 0 3.18l7.1 7.1a2.25 2.25 0 0 0 3.18 0l7.1-7.1a2.25 2.25 0 0 0 0-3.18l-7.1-7.1A2.23 2.23 0 0 0 12 2.64Z"/></svg>
